X: 18593
T: I Saw Three Ships
R: jig
M: 6/8
K: Gmajor
D|"G"GGG "D"ABc|"G"dcB "D7"ABc|"G"BAG GAB|"D"A2F DEF|
"G"GGG "D7"ABc|"G"dcB "D7"ABc|"G"BAG GAB|"D"AGF "G"G2:|
d|"G"gfe "D"d^cd|"G"gfe "D"d^cd|"G"gg/f/e "D"d>cB|"D7"A2B "Am"cde|
"G"dcB "D7"cBA|"G"BAG "Am"ABc|"G"dBG G>AB|"D"AGF "G"G2:|

